X:1
T:Wie Soll Ich, 76.76 D
T:Wie Soll Ich, 76.76 D
T:Johann Crüger, 1653
T:Public Domain Courtesy of the Cyber Hymnal™
C:Johann Crüger, 1653
Z:Public Domain
Z:Courtesy of the Cyber Hymnal™
%%score ( 1 2 ) ( 3 4 )
L:1/8
Q:1/4=115
M:4/4
K:Eb
V:1 treble 
V:2 treble 
V:3 bass 
V:4 bass 
V:1
 z4 [B,E]4 | [EG]2 [EA]2 [DB]2 [EB]2 | A4 [EG]4 | z2 [EA]2 [EG]2 [B,E]2 | [CF]2 [DF]2 E4 | %5
 z4 [B,E]4 | [EG]2 [EA]2 [DB]2 [EB]2 | A4 [EG]4 | z2 [EA]2 [EG]2 [B,E]2 | [CF]2 [DF]2 E4 | %10
 z4 [GB]4 | [Ec]2 [Fd]2 [Ge]2 [Fd]2 | [Fc]4 [DB]4 | z2 [EG]2 [Ec]2 [DB]2 | [EA]2 [EG]2 [DF]4 | %15
 z4 [B,G]4 | [CE]2 [DF]2 [EG]2 [EB]2 | [EA]4 [EG]4 | z2 [GB]2 [EA]2 [EG]2 | [EF]2 [DF]2 E4 x |] %20
V:2
 x8 | x8 | (C2 D2) x4 | x8 | x4 E4 | x8 | x8 | (C2 D2) x4 | x8 | x4 E4 | x8 | x8 | x8 | x8 | x8 | %15
 x8 | x8 | x8 | x8 | x4 E4 x |] %20
V:3
 z4 [E,G,]4 | [E,B,]2 [C,C]2 [B,,F,]2 [E,G,]2 | [F,A,]4 [C,C]4 | z2 [A,,C]2 [E,B,]2 [G,,G,]2 | %4
 [A,,F,]2 [B,,B,]2 [E,G,]4 | z4 [E,G,]4 | [E,B,]2 [C,C]2 [B,,F,]2 [E,G,]2 | [F,A,]4 [C,C]4 | %8
 z2 [A,,C]2 [E,B,]2 [G,,G,]2 | [A,,F,]2 [B,,B,]2 [E,G,]4 | z4 [E,E]4 | %11
 [A,C]2 [F,A,]2 [E,B,]2 [B,,B,]2 | (B,2 =A,2) [B,,B,]4 | z2 [E,B,]2 [A,,A,]2 [B,,F,]2 | %14
 [C,C]2 [E,B,]2 [B,,B,]4 | z4 [E,G,]4 | [C,G,]2 [B,,B,]2 [E,B,]2 [G,,B,]2 | [A,,C]4 [E,B,]4 | %18
 z2 [E,B,]2 [C,C]2 [E,B,]2 | B,3 z A, [E,G,]4 |] %20
V:4
 x8 | x8 | x8 | x8 | x8 | x8 | x8 | x8 | x8 | x8 | x8 | x8 | F,4 x4 | x8 | x8 | x8 | x8 | x8 | x8 | %19
 B,,2 B,,2 x5 |] %20

